X:1
T:C Major                      Jeremiah Ingalls, 1805
T:John Newton, 1779 The Good Physician (Hymn 62, Book 1) 76. 76. 76. 76.
T:The Great Physician
T:Transcribed from Ingalls' Christian Harmony, 1805.
%%score [ 1 2 3 ]
L:1/8
Q:1/4=190
M:4/4
K:C
V:1 treble nm="Tr." snm="Tr."
V:2 treble-8 nm="T." snm="T."
V:3 bass nm="B." snm="B."
V:1
"^1. How lost was my con–di  –  tion   Till  Jesus  made me  whole!     There  is   but  one Phy–si–cian   Can  cure  a  sin–sick  soul.      Next \n2. The  worst of  all   di  – sea –   ses     Is  light, compared with sin;    On    eve–ry  part   it    sei – zes,   But  ra –ges  most with–in:    ’Tis" c4 | %1
 e2 e2 e2 c2 | (B2 c2) d2 d2 | e2 c2 c2 c2 | c4 z2 c2 | e2 e2 e2 d2 | c4 c2 d2 | e2 e2 e2 c2 | %8
 d4 z2 c2 | %9
"^1. door to death he found me,  And   snatched me from the grave,  To  tell  to  all  a  –  round    me,   His wondrous power to save.\n2. pal–sy,  plague,  and   fe–ver,  And  madness, all combined;  And  none  but  a  be  –  lie    –   ver     The  least  re – lief  can   find." e2 e2 e2 f2 | %10
 g4 c2 d2 | e2 e2 e2 c2 | d6 d2 | c3 B A2 c2 | (B3 c) d2 d2 | e2 c2 c2 c2 | c8 |] %17
V:2
"^3. From men great skill  pro–fes–sing   I   thought  a  cure  to   gain;  But this proved more distressing,  And  added  to  my  pain:     Some\n4. At   length  this  great Phy–si–cian,  How matchless is his grace!   Ac – cep – ted    my   pe–ti–tion,  And  undertook  my case:     First" G4 | %1
 c2 c2 c2 e2 | (d2 c2) A2 A2 | c2 A2 G2 G2 | G4 z2 e2 | g2 g2 g2 a2 | e4 e2 d2 | c2 c2 c2 e2 | %8
 d4 z2 e2 | %9
"^3. said that nothing ailed me,  Some  gave  me  up  for lost;   Thus  eve–ry  re – fuge   failed  me,   And all my hopes were crossed.\n4. gave me sight to view  him,  For  sin my eyes had sealed;  Then  bid  me  look  un – to  him,     I   looked,  and  I  was  healed." g2 g2 g2 a2 | %10
 e4 e2 d2 | c2 c2 c2 e2 | g6 a2 | e3 d c2 e2 | (d3 c) A2 A2 | c2 A2 G2 G2 | G8 |] %17
V:3
"^5.  A      dy–ing,  ri–sen   Je    –   sus,   Seen   by  the  eye   of   faith;     At once  from danger frees us,  And saves the soul from death: Come" C,4 | %1
 C,2 C,2 C,2 C,2 | (D,2 E,2) D,2 D,2 | C,2 C,2 C,2 C,2 | C,4 z2 C,2 | C,2 C,2 C,2 F,2 | %6
 G,4 G,2 G,2 | C,2 C,2 C,2 C,2 | G,4 z2 C2 | %9
"^5.  then  to  this  Phy–si–cian,    His  help  he’ll  freely  give;   He  makes  no  hard  con– di  –  tion,  ’Tis   on– ly:  look  and  live." C2 C2 C2 A,2 | %10
 G,4 G,2 G,2 | A,2 A,2 A,2 A,2 | %12
"^____________________________________________________\nA folk hymn (Jackson 1952, no. 186; Jackson 1953b, nos. 8 and 31." G,6 F,2 | %13
 E,3 E, F,2 E,2 | (D,3 E,) D,2 D,2 | C,2 C,2 C,2 C,2 | C,8 |] %17

